icons/Document/folder-forbid-fill.svg

<svg viewBox="0 0 24 24" xmlns="http://www.w3.org/2000/svg"><path d="M22 11.2547C20.8662 10.4638 19.4872 10 18 10C14.134 10 11 13.134 11 17C11 18.4872 11.4638 19.8662 12.2547 21H3C2.44772 21 2 20.5523 2 20V4C2 3.44772 2.44772 3 3 3H10.4142L12.4142 5H21C21.5523 5 22 5.44772 22 6V11.2547ZM18 22C15.2386 22 13 19.7614 13 17C13 14.2386 15.2386 12 18 12C20.7614 12 23 14.2386 23 17C23 19.7614 20.7614 22 18 22ZM16.7066 19.7076C17.0982 19.895 17.5369 20 18 20C19.6569 20 21 18.6569 21 17C21 16.5369 20.895 16.0982 20.7076 15.7066L16.7066 19.7076ZM15.2924 18.2934L19.2934 14.2924C18.9018 14.105 18.4631 14 18 14C16.3431 14 15 15.3431 15 17C15 17.4631 15.105 17.9018 15.2924 18.2934Z"/></svg>

<svg xmlns="http://www.w3.org/2000/svg" viewBox="0 0 24 24">
    <g>
        <path fill="none" d="M0 0h24v24H0z"/>
        <path d="M22 11.255A7 7 0 0 0 12.255 21H3a1 1 0 0 1-1-1V4a1 1 0 0 1 1-1h7.414l2 2H21a1 1 0 0 1 1 1v5.255zM18 22a5 5 0 1 1 0-10 5 5 0 0 1 0 10zm-1.293-2.292a3 3 0 0 0 4.001-4.001l-4.001 4zm-1.415-1.415l4.001-4a3 3 0 0 0-4.001 4.001z"/>
    </g>
</svg>
